X: 1
T: Flickorna Svensson
C: av Pelle Svensson, Tr\"on\"o, H\"alsingland
S: Peter "Puma" Hedlund at ANA Stämma East, 1999
Z: from a transcription by Matt Fichtenbaum
S: also from a handout from Bronwyn Bird at Fiddle Hell Online 2020
M: C|
L: 1/8
K: G
D2 \
| "G"G2G2 G2AG | G2FE "D7"D2EF | "G"G2AB "C"(cB)AG |[M:3/2] "D7"~F2EF G6 :|
M:C|
|: Bc \
| "G"d2d2 d2ed | d2cB "D7"A2Bc | "G"d2d2 d2ed | d2cB "D7"A2D2 |
| "C"E2G2 "D7"(FG)AF | "G"G2~B2 "D7"(AB)cA | "G"~B2AG "D7"F2EF | "G"G6 :|

%%sep 1 1 500

